public/assets/images/fullStoreReport.svg

<svg width="60" height="60" viewBox="0 0 60 60" fill="none" xmlns="http://www.w3.org/2000/svg">
<path d="M7.5 12.5001L12.5 17.5001L22.5 7.5" stroke="#FF588A" stroke-width="3" stroke-linecap="round" stroke-linejoin="round"/>
<path d="M33.75 9.375H48.75C49.7446 9.375 50.6984 9.77009 51.4017 10.4734C52.1049 11.1766 52.5 12.1305 52.5 13.125C52.5 14.1196 52.1049 15.0735 51.4017 15.7767C50.6984 16.48 49.7446 16.8751 48.75 16.8751H33.75C32.7554 16.8751 31.8016 16.48 31.0983 15.7767C30.3951 15.0735 30 14.1196 30 13.125C30 12.1305 30.3951 11.1766 31.0983 10.4734C31.8016 9.77009 32.7554 9.375 33.75 9.375Z" stroke="#FF588A" stroke-width="3" stroke-linecap="round"/>
<path d="M7.5 30.9375L12.5 35.625L22.5 26.25" stroke="#FF588A" stroke-width="3" stroke-linecap="round" stroke-linejoin="round"/>
<path d="M48.75 26.25H33.75C31.6789 26.25 30 27.929 30 30C30 32.0711 31.6789 33.7501 33.75 33.7501H48.75C50.8211 33.7501 52.5 32.0711 52.5 30C52.5 27.929 50.8211 26.25 48.75 26.25Z" stroke="#FF588A" stroke-width="3" stroke-linecap="round"/>
<path d="M7.5 47.8125L12.5 52.5L22.5 43.125" stroke="#FF588A" stroke-width="3" stroke-linecap="round" stroke-linejoin="round"/>
<path d="M48.75 45H33.75C31.6789 45 30 46.679 30 48.75C30 50.8211 31.6789 52.5001 33.75 52.5001H48.75C50.8211 52.5001 52.5 50.8211 52.5 48.75C52.5 46.679 50.8211 45 48.75 45Z" stroke="#FF588A" stroke-width="3" stroke-linecap="round"/>
</svg>

<svg xmlns="http://www.w3.org/2000/svg" width="60" height="60" fill="none"><path stroke="#FF588A" stroke-linecap="round" stroke-linejoin="round" stroke-width="3" d="m7.5 12.5 5 5 10-10"/><path stroke="#FF588A" stroke-linecap="round" stroke-width="3" d="M33.75 9.375h15a3.75 3.75 0 1 1 0 7.5h-15a3.75 3.75 0 0 1 0-7.5Z"/><path stroke="#FF588A" stroke-linecap="round" stroke-linejoin="round" stroke-width="3" d="m7.5 30.938 5 4.687 10-9.375"/><path stroke="#FF588A" stroke-linecap="round" stroke-width="3" d="M48.75 26.25h-15a3.75 3.75 0 0 0 0 7.5h15a3.75 3.75 0 0 0 0-7.5Z"/><path stroke="#FF588A" stroke-linecap="round" stroke-linejoin="round" stroke-width="3" d="m7.5 47.813 5 4.687 10-9.375"/><path stroke="#FF588A" stroke-linecap="round" stroke-width="3" d="M48.75 45h-15a3.75 3.75 0 0 0 0 7.5h15a3.75 3.75 0 0 0 0-7.5Z"/></svg>
